X:1
T:James Gibb editions
T:Quando,quando? - Vásquez
T:#
%%score [ 1 2 3 4 ]
L:1/8
Q:1/4=160
M:4/4
K:F
V:1 treble nm="Soprano" snm="S"
V:2 treble nm="Alto" snm="A"
V:3 treble-8 nm="Tenor" snm="T"
V:4 bass nm="Bass" snm="B"
V:1
"^¿Quando, quando?""^Juan Vásquez\n(c.1500-c.1560)" G8 | B8 | c8 | d8- | d8 | z4 e4 | f6 f2 | %7
w: ¿Quán-|do,|quán-|do?||¡O,|quién vie-|
 f4 e4 |[M:4/4] (c4 d4- | d2 cB c4) | d8- | d8 | z8 | z4 d4- | d2 d2 d4 | B4 c4 | d8 | A8 | z4 A4 | %19
w: se~~es- te|quán\- *||do!|||¿Quán\-|* do sal-|drá, mi|vi-|da,|De|
 (B2 c4 B2) | c8 | A4 (B4- | B2 A2 G4- | G4 ^F4) | G8 | z8 | z8 | z4 d4- | d2 d2 d4 | B4 c4 | d8 | %31
w: tan\- * *|to|cuy- da\-|||do?|||¿Quán\-|* do sal-|drá, mi|vi-|
 A8 | z4 A4 | (B2 c4 B2) | c8 | A4 (B4- | B2 A2 G4- | G4 ^F4) | G8 | z4 d4 | d4 d4 | c8- | c8 | %43
w: da,|De|tan\- * *|to|cuy- da\-|||do?|Es-|ta mi|vi\-||
 B4 d4 | d4 d4 | c8- | c4 A4 | B8 | G8 | z8 | z8 | z4 F4 | F4 F4 | G8- | G4 F4 | (E4 F4) | G8 | %57
w: da Con|va- nas|es\-|* pe-|ran-|ças|||Y|muer- tas|con\-|* fi-|an\- *|ças|
 z4 d4 | f2 f2 f2 f2 | e4 d4 | z4 d4 | c2 c2 B2 B2 | A8 | G8 | z4 c4 | c2 c2 c2 c2 | B2 B2 A2 A2 | %67
w: Ya|ca- si con- su-|mi- da,|ya|ca- si con- su-|mi-|da.|Y|siem- pre~~es- tá~~e- spe-|ran- do~~a- ques- te|
 B8- | B8 | A4 A4- | A2 A2 A4 | B4 c4 | (d8- | d4 ^c4) | d8 | z4 A4 | (B2 c4 B2) | c8 | A4 (B4- | %79
w: quán\-||do. ¿Quán-|* do sal-|drá, mi|vi\-||da,|De|tan\- * *|to|cuy- da\-|
 B2 A2 G4- | G4 ^F4) | G8 | z8 | z8 | z4 d4- | d2 d2 d4 | B4 c4 | d8 | A8 | z4 A4 | (B2 c4 B2) | %91
w: ||do?|||¿Quán\-|* do sal-|drá, mi|vi-|da,|De|tan\- * *|
 c8 | A4 (B4- | B2 A2 G4- | G4 ^F4) | G8- |[Q:1/4=156] G8 |[Q:1/4=150] G8 |[Q:1/4=143] G8 | %99
w: to|cuy- da\-|||do?||||
[Q:1/4=137] G8 |[Q:1/4=135] G16 |] %101
w: ||
V:2
 z4 (G4- | G2 F2) D4 | (F4 E4) | D4 (B4- | B2 A2) F4 | A4 G4 | z4 A4 | B4 G4 |[M:4/4] A8- | A4 A4 | %10
w: ¿Quan\-|* * do,|quán\- *|do? ¿Quán\-|* * do,|quán- do?|¡O,|quién vie-|se|* es-|
 (F4 G4) | (F4 G4 | E8) | D4 A4 | B6 B2 | G4 A4 | (F4 G4- | G4 F4) | G4 E4 | G8- | G8 | C4 (G4- | %22
w: te *|quán\- *||do! ¿Quán-|do sal-|drá, mi|vi\- *||da, De|tan\-||to cuy\-|
 G2 F2) _E4 | D8 | z4 B4 | A6 A2 | B4 c4 | A8 | B4 G4- | G2 G2 G4 | A6 G2 | (^F2 G4 F2 | G4 E4 | %33
w: * * da-|do?|¿Quán-|do sal-|drá, mi|vi-|da, ¿quán\-|* do sal-|drá, mi|vi\- * *|* da,|
 G8- | G8 | C4 G4- | G2 F2 _E4 | D8- | D8 | z4 B4 | A4 B4 | A4 G4- | G2 ^FE F4) | G8 | z4 B4 | %45
w: De||tan- to|* cuy- da-|do?||Es-|ta mi|vi\- *||da|Con|
 (G4 A4- | A2 G2) E4 | (G6 F2) | (D4 E4) | (F4 D4- | D4 C4) | D4 D4 | D4 D4 | B,6 C2 | %54
w: va\- *|* * nas|es\- *|pe\- *|ran\- *||ças Y|muer- tas|con- fi-|
 (D2 C2 A,2 B,2 | C4 D4- | D2 CB, C4) | D4 z2 A2 | A2 A2 F2 F2 | G8 | F4 B4 | A2 A2 G2 G2 | (F8- | %63
w: an\- * * *|||ças Ya|ca- si con- su-|mi-|da, ya|ca- si con- su-|mi\-|
 D8) | E4 G4 | G2 G2 F2 F2 | G2 G2 E2 E2 | G8- | G8 | F8 | F6 F2 | F4 G4 | A4 (B4- | B4 A2 G2 | %74
w: |da. Y|siem- pre~~es- tá~~e- spe-|ran- do~~a- ques- te|quán\-||do.|¿Quán- do|sal- drá,|mi vi\-||
 F4 G4) | E8 | z4 G4 | G8 | C4 (G4- | G2 F2) E4 | D8 | z4 B4 | A6 A2 | B4 c4 | A8 | B4 G4- | %86
w: |da,|De|tan-|to cuy\-|* * da-|do?|¿Quán-|do sal-|drá, mi|vi-|da, ¿quán\-|
 G2 G2 G4 | A6 G2 | (^F2 G4 F2 | G4) E4 | G8- | G8 | C4 G4- | G2 F2 _E4 | D8 | z4 D4 | _E8 | %97
w: * do sal-|drá, mi|vi\- * *|* da,|De||tan- to|* cuy- da-|do?|de|tan-|
 D4 D4 | _E8 | D8- | D16 |] %101
w: to cuy-|da-|do?||
V:3
 z8 | z8 | z8 | G8 | B8 | c8 | d8 | z4 e4 |[M:4/4][K:treble-8] f6 f2 | f4 e4 | (d4 G2 A2 | %11
w: |||¿Quán-|do,|quán-|do?|¡O,|quién vie-|se~es- te|quán\- * *|
 B2 c2 d4- | d4 ^c4) | d8 | z8 | z8 | z4 d4- | d2 d2 d4 | B4 c4 | d4 d4 | e2 f4 (e2 | %21
w: ||do!|||¿Quán\-|* do sal-|drá, mi|vi- da,|De tan- to|
 f2 e2 d2 c2) | (B4 c4) | A8 | G4 g4 | f6 f2 | d4 e4 | (^f2 g4 f2) | g4 d4 | _e2 e2 e2 e2 | d8 | %31
w: |cuy\- *|da-|do? ¿Quán-|do sal-|drá, mi|vi\- * *|da, ¿quán-|do sal- drá, mi|vi-|
 d8 | B4 c4 | d4 z2 d2 | (e2 f4 e2) | (f2 _e2 d2 c2) | (B4 c4) | A8 | G8 | z4 g4 | f4 g4 | (e8 | %42
w: da,|De tan-|to, de|tan\- * *|to * * *|cuy\- *|da-|do?|Es-|ta mi|vi\-|
 c8) | d8 | z4 g4 | e4 f4 | e4 c4 | d8 | B4 c4 | A2 A2 B2 B2 | G8 | A4 z2 A2 | A4 A4 | G8 | %54
w: |da|Con|va- nas|es- pe-|ran-|ças, con|va- nas es- pe-|ran-|ças Y|muer- tas|con-|
 (A6 F2) | (G4 B4 | G8) | A8 | z4 A4 | c2 c2 B2 c2 | (d2 c2 d2 e2) | f4 d4 | d2 d2 c2 c2 | %63
w: fi\- *|an\- *||ças|Ya|ca- si con- su-|mi\- * * *|da, ya|ca- si con- su-|
 (=B2 c4 B2) | c4 e4 | e2 e2 c2 c2 | d2 d2 d2 c2 | d8- | d8 | d8 | d6 d2 | d4 e4 | f4 (g4- | %73
w: mi\- * *|da. Y|siem- pre~~es- tá~~e- spe-|ran- do~~a- ques- te|quán\-||do.|¿Quán- do|sal- drá,|mi vi\-|
 g2 f2 e4- | e2 d2 d4- | d4 c4) | d4 z2 d2 | (e2 f4 e2) | (f2 _e2 d2 c2) | (B4 c4) | A8 | G4 g4 | %82
w: |||da, De|tan\- * *|to * * *|cuy\- *|da-|do? ¿Quán-|
 f6 f2 | d4 e4 | (^f2 g4 f2) | g4 d4 | _e2 e2 e2 e2 | d8 | d8 | B4 c4 | d4 z2 d2 | (e2 f4 e2) | %92
w: do sal-|drá, mi|vi\- * *|da, ¿quán-|do sal- drá, mi|vi-|da,|De tan-|to, de|tan\- * *|
 (f2 _e2 d2 c2) | (B4 c4) | A8 | G4 B4 | B4 c4- | c4 B4 | (c8- | c4 =B2 A2) | =B16 |] %101
w: to * * *|cuy\- *|da-|do, de|tan- to|* cuy-|da\-||do?|
V:4
 z8 | z8 | z8 | z4 (G,4- | G,2 F,2) D,4 | (F,4 E,4) | D,8 | z8 |[M:4/4] z8 | z4 A,4 | B,4 B,4 | %11
w: |||¿Quán\-|* * do,|quán\- *|do?|||¡O,|quién vie-|
 B,4 G,4 | A,8 | D,8 | z8 | z8 | D,8 | D,4 D,4 | G,4 A,4 | G,8 | C,4 C,4 | F,4 G,4 | G,4 C,4 | %23
w: se~es- te|quán-|do!|||¿Quán-|do sal-|drá, mi|vi-|da, De|tan- to|cuy- da-|
 D,8 | z4 G,4 | D6 D2 | G,4 C4 | D8 | G,8 | z8 | D,8 | D,4 D,4 | G,4 A,4 | G,8 | C,4 C,4 | %35
w: do?|¿Quán-|do sal-|drá, mi|vi-|da,||¿Quán-|do sal-|drá, mi|vi-|da, De|
 F,4 G,4- | G,4 C,4 | D,8 | G,8 | z4 G,4 | D4 G,4 | (C8 | A,8) | G,8- | G,8 | z4 A,4 | A,4 A,4 | %47
w: tan- to|* cuy-|da-|do?|Es-|ta mi|vi\-||da||Con|va- nas|
 G,8- | G,4 C,4 | F,4 G,4 | _E,8 | D,4 D,4 | D,4 D,4 | _E,8 | D,8 | (C,4 B,,4 | E,8) | D,8- | D,8 | %59
w: es\-|* pe-|ran\- *||ças Y|muer- tas|con-|fí-|an\- *||ças||
 z4 G,4 | B,2 B,2 B,2 B,2 | F,4 G,2 G,2 | D,2 D,2 F,2 F,2 | G,8 | C,4 C4 | C2 C2 A,2 A,2 | %66
w: Ya|ca- si con- su-|mi- da, ya|ca- si con- su-|mi-|da. Y|siem- pre~~es- tá~~e- spe-|
 G,2 G,2 A,2 A,2 | G,8- | G,8 | D,8 | z8 | z8 | z4 G,4- | G,2 G,2 A,4 | B,4 G,4 | A,8 | G,4 G,4 | %77
w: ran- do~~a- ques- te|quán\-||do.|||¿Quán\-|* do sal-|drá, mi|vi-|da, De|
 C,8 | F,4 G,4- | G,4 C,4 | D,8 | z4 G,4 | D6 D2 | G,4 C4 | D8 | G,8 | z8 | D,8 | D,4 D,4 | %89
w: tan-|to cuy\-|* da-|do?|¿Quán-|do sal-|drá, mi|vi-|da,||¿Quán-|do sal-|
 G,4 A,4 | G,8 | C,4 C,4 | F,4 G,4- | G,4 C,4 | D,4 D,4 | z4 G,4 | _E,4 C,4 | G,8 | C,8 | G,8- | %100
w: drá, mi|vi-|da, De|tan- to|* cuy-|da- do,|de|tan- to|cuy-|da-|do?|
 G,16 |] %101
w: |

